X: 19894
T: Jig For Jimmy
R: jig
M: 6/8
K: Cmajor
G,CC EGc|dcB cAG|EFG AFD|DEC B,A,G,|
G,CC EGc|dcB cAG|EFG AFD|G,B,D C2 A,|
G,2 C EGc|dcB cAG|EFG AFD|DEC B,CD|
E{G}EC F{G}FD|GcB cde|fdB dcB|GAB c2 d||
ege {e}f2 g|edc BAG|e/f/ge fed|cBA G2 g|
e/f/ge f2 g|edc BAG|cGc ege|fdB c2 d|
ege f2 g|edc BAG|e/f/ge fed|cBA G2 F|
ECE F{G}FD|GcB cde|fdB dcB|GAB c2 G,||

